X: 30742
T: Oró A Bhuachaillín
R: slide
M: 12/8
K: Dmajor
dcB|:A2G FED F2G A3|d2d cBA B2G E3|
A2G FED EFG A3|1 Bcd ecA d3 dcB:|2 Bcd ecA d3 d2e||
f3 def g3 efg|f3 def e2c A3|
f3 def g3 efg|1 f2d efe d3 d2e:|2 f2d efe d3 dcB||

